packages/katcn/src/icons/svg/compass.svg

<svg width="24" height="24" viewBox="0 0 24 24" fill="none" xmlns="http://www.w3.org/2000/svg">
<path fill-rule="evenodd" clip-rule="evenodd" d="M18.4384 2.09583C20.5263 1.53905 22.461 3.47371 21.9042 5.56164C21.9017 5.57078 21.8992 5.57988 21.8965 5.58895L18.9386 15.5383C18.4921 17.0939 17.2664 18.45 15.5605 18.9107L5.62522 21.8644C3.42571 22.5461 1.45392 20.5743 2.13559 18.3748L5.09168 8.43154C5.53811 6.87585 6.76387 5.51977 8.46977 5.05905L18.4111 2.10353C18.4201 2.10084 18.4292 2.09827 18.4384 2.09583ZM18.9647 4.02544L9.02692 6.97993C9.01785 6.98262 9.00875 6.98519 8.99961 6.98763C8.02477 7.24759 7.2842 8.03784 7.01318 8.98641L7.01024 8.99667L4.0469 18.9641C3.93392 19.3256 4.03944 19.6111 4.21419 19.7858C4.38894 19.9606 4.67443 20.0662 5.03597 19.9532L5.04924 19.9491L15.0034 16.9898C15.0124 16.9871 15.0215 16.9846 15.0307 16.9821C16.0055 16.7222 16.7461 15.9319 17.0171 14.9833L17.02 14.9731L19.9746 5.03526C20.1244 4.44061 19.5594 3.87565 18.9647 4.02544Z" fill="black"/>
<path fill-rule="evenodd" clip-rule="evenodd" d="M12 10.3C11.0611 10.3 10.3 11.0611 10.3 12C10.3 12.9389 11.0611 13.7 12 13.7C12.9389 13.7 13.7 12.9389 13.7 12C13.7 11.0611 12.9389 10.3 12 10.3ZM8.29999 12C8.29999 9.95653 9.95653 8.29999 12 8.29999C14.0434 8.29999 15.7 9.95653 15.7 12C15.7 14.0434 14.0434 15.7 12 15.7C9.95653 15.7 8.29999 14.0434 8.29999 12Z" fill="black"/>
</svg>

<svg xmlns="http://www.w3.org/2000/svg" fill="none" viewBox="0 0 24 24"><path fill="#000" fill-rule="evenodd" d="M18.438 2.096c2.088-.557 4.023 1.378 3.466 3.466l-.008.027-2.957 9.95c-.447 1.555-1.673 2.911-3.379 3.372l-9.935 2.953c-2.2.682-4.171-1.29-3.49-3.49l2.957-9.942C5.538 6.876 6.764 5.52 8.47 5.059l9.941-2.955zm.527 1.93L9.027 6.98 9 6.988c-.975.26-1.716 1.05-1.987 1.998l-.003.01-2.963 9.968c-.113.362-.008.647.167.822s.46.28.822.167l.013-.004 9.954-2.96.028-.007c.975-.26 1.715-1.05 1.986-1.999l.003-.01 2.955-9.938c.15-.594-.416-1.16-1.01-1.01" clip-rule="evenodd"/><path fill="#000" fill-rule="evenodd" d="M12 10.3a1.7 1.7 0 1 0 0 3.4 1.7 1.7 0 0 0 0-3.4M8.3 12a3.7 3.7 0 1 1 7.4 0 3.7 3.7 0 0 1-7.4 0" clip-rule="evenodd"/></svg>
